X:137
T: ES WAR EIN JUNGES MAEDCHEN VON REIZENDER GESTALT
N: B0167B
O: Europa, Mitteleuropa, Deutschland, Coburg
R: Ballade, Romanze
M: 2/4
L: 1/16
K: Bb
F2 | F2B2B2B2 | d4B2
F2 | F3GF2E2 | D4z2
B2 | A2c2f2B2 | A2c2f2
B2 | A4G4 | F4z2
c2 | c2A2A2F2 | F2d2B2
f2 | f2e2e2d2 | d4c2
F2 | f4e2F2 | e4d2
F2 | G2c2B2A2 | B4z2

@@@ Tune index: 1940
